img/linkedin.svg

<svg width="20" height="20" fill="none" xmlns="http://www.w3.org/2000/svg"><path fill-rule="evenodd" clip-rule="evenodd" d="M2 0h16c1.1 0 2 .9 2 2v16c0 1.1-.9 2-2 2H2c-1.1 0-2-.9-2-2V2C0 .9.9 0 2 0zm4 17V8H3v9h3zM4.5 6.3c-1 0-1.8-.8-1.8-1.8s.8-1.8 1.8-1.8 1.8.8 1.8 1.8-.8 1.8-1.8 1.8zM14 17h3v-5.7c0-1.9-1.6-3.5-3.5-3.5-.9 0-2 .6-2.5 1.4V8H8v9h3v-5.3c0-.8.7-1.5 1.5-1.5s1.5.7 1.5 1.5V17z" fill="#fff"/></svg>

<svg width="20" height="20" viewBox="0 0 20 20" fill="none" xmlns="http://www.w3.org/2000/svg">
<path fill-rule="evenodd" clip-rule="evenodd" d="M2 0H18C19.1 0 20 0.9 20 2V18C20 19.1 19.1 20 18 20H2C0.9 20 0 19.1 0 18V2C0 0.9 0.9 0 2 0ZM6 17V8H3V17H6ZM4.5 6.3C3.5 6.3 2.7 5.5 2.7 4.5C2.7 3.5 3.5 2.7 4.5 2.7C5.5 2.7 6.3 3.5 6.3 4.5C6.3 5.5 5.5 6.3 4.5 6.3ZM14 17H17V11.3C17 9.4 15.4 7.8 13.5 7.8C12.6 7.8 11.5 8.4 11 9.2V8H8V17H11V11.7C11 10.9 11.7 10.2 12.5 10.2C13.3 10.2 14 10.9 14 11.7V17Z" fill="white"/>
</svg>
